contributed-vectors/blackboard.svg

<svg xmlns="http://www.w3.org/2000/svg" xml:space="preserve" style="fill-rule:evenodd;clip-rule:evenodd;stroke-linejoin:round;stroke-miterlimit:2" viewBox="0 0 192 192"><path d="M164.5 21.5c0-5.519-4.481-10-10-10h-133c-5.519 0-10 4.481-10 10v133c0 5.519 4.481 10 10 10h133c5.519 0 10-4.481 10-10v-133Z" style="fill:#9abeff" transform="translate(8 8)"/><path d="M81.142 30.609h28.162v110.52H81.142z" style="fill:#f8c18c" transform="rotate(-45 136.539 45.715) scale(.7595 .70128)"/><path d="M81.142 30.609h28.162v110.52H81.142z" style="fill:#d2d2d2" transform="rotate(-45 142.643 43.187) scale(.7595 .11627)"/><path d="M109.303 67.381c0-20.309-4.363-36.772-9.746-36.772h-8.669c-5.383 0-9.746 16.463-9.746 36.772v73.747h28.161V67.381Z" style="fill:#ffb0ac" transform="rotate(-45 112.646 55.613) scale(.7595 .2013)"/><path d="m95.772 145.559 12.993 10.893H82.779l12.993-10.893Z" style="fill:#fcecdc" transform="rotate(-45 423.066 -63.766) scale(.82309 -.86738)"/><path d="M91.799 162.319A4.546 4.546 0 0 1 96 159.505a4.546 4.546 0 0 1 4.201 2.814l-1.195 2.358a.816.816 0 0 1-.152.208l-1.799 1.798c-.254.255-.648.404-1.065.404-.418 0-.812-.149-1.066-.404l-1.756-1.756a.81.81 0 0 1-.153-.207l-1.216-2.401Z" style="fill:#4a4a4a" transform="rotate(-45 83.957 69.82) scale(.77046 1)"/><path d="m109.881 143.211-9.695 19.138.015-.03A4.546 4.546 0 0 0 96 159.505a4.546 4.546 0 0 0-4.201 2.814l-9.68-19.108h27.762Z" style="fill:#fdf5d9" transform="rotate(-45 83.957 69.82) scale(.77046 1)"/></svg>

<?xml version="1.0" encoding="UTF-8" standalone="no"?>
<!DOCTYPE svg PUBLIC "-//W3C//DTD SVG 1.1//EN" "http://www.w3.org/Graphics/SVG/1.1/DTD/svg11.dtd">
<svg width="100%" height="100%" viewBox="0 0 192 192" version="1.1" xmlns="http://www.w3.org/2000/svg" xmlns:xlink="http://www.w3.org/1999/xlink" xml:space="preserve" xmlns:serif="http://www.serif.com/" style="fill-rule:evenodd;clip-rule:evenodd;stroke-linejoin:round;stroke-miterlimit:2;">
    <g id="Layer1">
        <g transform="matrix(1,0,0,1,8,8)">
            <path d="M164.5,21.5C164.5,15.981 160.019,11.5 154.5,11.5L21.5,11.5C15.981,11.5 11.5,15.981 11.5,21.5L11.5,154.5C11.5,160.019 15.981,164.5 21.5,164.5L154.5,164.5C160.019,164.5 164.5,160.019 164.5,154.5L164.5,21.5Z" style="fill:rgb(154,190,255);"/>
        </g>
        <g transform="matrix(0.544799,-0.544799,0.707107,0.707107,-24.7795,79.8162)">
            <g transform="matrix(0.985778,0,0,0.701278,2.13174,44.2408)">
                <rect x="81.142" y="30.609" width="28.162" height="110.52" style="fill:rgb(248,193,140);"/>
            </g>
            <g transform="matrix(0.985778,0,0,0.116267,2.13174,49.2974)">
                <rect x="81.142" y="30.609" width="28.162" height="110.52" style="fill:rgb(210,210,210);"/>
            </g>
            <g transform="matrix(0.985778,0,0,0.2013,2.13174,24.447)">
                <path d="M109.303,67.381C109.303,47.072 104.94,30.609 99.557,30.609C96.752,30.609 93.693,30.609 90.888,30.609C85.505,30.609 81.142,47.072 81.142,67.381C81.142,99.535 81.142,141.128 81.142,141.128L109.303,141.128L109.303,67.381Z" style="fill:rgb(255,176,172);"/>
            </g>
            <g transform="matrix(1.06831,2.46074e-17,-2.46074e-17,-0.867374,-6.31397,278.913)">
                <path d="M95.772,145.559L108.765,156.452L82.779,156.452L95.772,145.559Z" style="fill:rgb(252,236,220);"/>
            </g>
            <path d="M91.799,162.319C92.48,160.668 94.105,159.505 96,159.505C97.895,159.505 99.52,160.668 100.201,162.319C100.201,162.319 99.251,164.195 99.006,164.677C98.968,164.752 98.917,164.822 98.854,164.885C98.577,165.162 97.75,165.989 97.055,166.683C96.801,166.938 96.407,167.087 95.99,167.087C95.572,167.087 95.178,166.938 94.924,166.683C94.243,166.003 93.439,165.199 93.168,164.927C93.104,164.864 93.053,164.794 93.015,164.72C92.768,164.232 91.799,162.319 91.799,162.319Z" style="fill:rgb(74,74,74);"/>
            <path d="M109.881,143.211L100.186,162.349L100.201,162.319C99.52,160.668 97.895,159.505 96,159.505C94.105,159.505 92.48,160.668 91.799,162.319L82.119,143.211L109.881,143.211Z" style="fill:rgb(253,245,217);"/>
        </g>
    </g>
</svg>
